X:63
T:The Flannel Jacket
N:Reel      Allan's   #63  pp16
N:Trad/Anon.
N:CONVERTED FROM NOTEWORTHY COMPOSER  (WWW.NOTEWORTHYSOFTWARE.COM) BY
N:ABC2NWC (HTTP://MEMBERS.AOL.COM/ABACUSMUSIC/), WITH
Z: (INTO NWC) VINCE BRENNAN 2002   (WWW.SOSYOURMOM.COM)
I:abc2nwc
M:2/2
L:1/8
K:G
F|:G2(BG) DGBG|FGAB c2(Bc)|(dg) {a} ((3gfg) d2 ((3efg)|fdcA BGGF|
G2(BG) DGBG|FGAB c2(Bc)|(dg){a}gf d2(ge)|fdcA BGGF:|
|:g2{a}gf d2ef|gfga bgaf|gagf d2 ((3efg)|fdcA BGBd|
g2{a}gf d2ef|gfga bgaf|gbag fdde|fdcA (BG) G2:|
